images/LMY.svg

<svg height="250" viewBox="0 0 250 250" width="250" xmlns="http://www.w3.org/2000/svg"><path d="m194.484375 201.714844-.125-23.875c2.628906-3.023438 4.46875-4.890625 4.46875-4.890625 3.546875-2.878907 2.363281-7.625 2.363281-7.625l-2.054687-33.910157c-.027344-.425781-.347657-.757812-.738281-.757812h-.164063c-.398437 0-.726563.351562-.734375.792969l-.632812 32.871093c-.003907.316407-.242188.574219-.535157.574219h-.132812c-.292969 0-.53125-.257812-.535157-.574219l-.632812-32.871093c-.007812-.441407-.335938-.792969-.734375-.792969-.402344 0-.730469.351562-.738281.792969l-.632813 32.582031c-.003906.320312-.242187.574219-.535156.574219h-.171875c-.289062 0-.527344-.25-.535156-.566407l-.976563-32.601562c-.015625-.433594-.339843-.78125-.738281-.78125h-.011719c-.398437 0-.726562.351562-.738281.789062l-.757812 32.875c-.003907.320313-.242188.574219-.535157.574219s-.53125-.257812-.535156-.582031l-.378906-32.855469c-.003907-.445312-.332031-.800781-.734375-.800781h-.289063c-.390625 0-.710937.332031-.738281.753906l-1.925781 31.46875c-1.707031 6.328125 1.054687 9.207032 1.054687 9.207032 5.910156 5.320312 5.515625 6.472656 5.515625 6.472656l-.5 23.183594c-10.441406-.640626-20.089843-5.605469-27.269531-14.074219-7.429688-8.761719-11.246094-20.167969-10.742188-32.121094.953126-22.550781 17.828126-41.03125 38.425782-42.066406.628906-.03125 1.269531-.046875 1.894531-.046875 11.117187 0 21.480469 4.863281 29.179687 13.691406 7.691407 8.820312 11.644532 20.386719 11.132813 32.574219-.933594 22.234375-17.339844 40.5-37.53125 42.015625m-64.125-53.878906c-.320313 2.765624-2.386719 5.027343-4.917969 5.382812-.246094.035156-.5.050781-.746094.050781-1.644531 0-3.207031-.773437-4.296874-2.128906-1.101563-1.371094-1.589844-3.128906-1.378907-4.960937.320313-2.765626 2.386719-5.027344 4.914063-5.382813.253906-.039063.503906-.054687.757812-.054687 1.636719 0 3.203125.777343 4.289063 2.128906 1.101562 1.367187 1.59375 3.128906 1.378906 4.964844m-31.738281 10.90625c-.859375 20.480468-14.855469 37.601562-32.835938 41.351562-.015625.003906-.035156.007812-.046875.011719-1.695312.402343-3.367187.632812-4.976562.742187l-.261719-22c1.3125-3.308594 5.78125-6.1875 5.78125-6.1875 7.355469-5.464844 5.910156-14.238281 5.910156-14.238281-.523437-21.003906-10.378906-25.75-10.378906-25.75-6.304688-2.445313-9.195312 1.871094-9.195312 1.871094-9.0625 9.0625-7.75 24.738281-7.75 24.738281-.785157 9.640625 6.175781 13.953125 6.175781 13.953125l5.910156 4.890625-.636719 22.730469c-5.242187-.320313-9.050781-1.671875-9.3125-1.765625-.003906 0-.007812 0-.011718-.003906h-.003907c-17.421875-5.609376-29.871093-23.839844-29.003906-44.492188.945313-22.558594 17.824219-41.035156 38.421875-42.070312.632812-.035157 1.269531-.050782 1.898438-.050782 11.109374 0 21.472656 4.863282 29.171874 13.695313 7.695313 8.816406 11.652344 20.390625 11.144532 32.574219m118.308594-51.566407c-8.324219-12.828125-16.640626-25.644531-24.960938-38.472656-2.269531-3.5-5.359375-6.242187-8.941406-7.941406-4.234375-1.996094-8.605469-3-13-3-.941406 0-1.894532.042969-2.832032.140625-2.277343.226562-8.328124.828125-13.960937 5.339844-6.621094 5.292968-9.222656 13.050781-10.238281 18.617187-.089844.488281-.464844.710937-.78125.710937-.175782 0-.335938-.070312-.476563-.195312l-1.859375-1.695312c-2.59375-2.355469-5.746094-3.808594-9.117187-4.191407-1.664063-.195312-3.378907-.308593-5.097657-.339843-.273437-.003907-.546874-.003907-.816406-.003907-1.238281 0-2.5.042969-3.746094.132813-3.371093.238281-6.566406 1.5625-9.25 3.828125l-2.117187 1.792969c-.144531.121093-.304687.179687-.476563.179687-.265624 0-.617187-.15625-.734374-.582031-.375-1.398438-.832032-2.808594-1.363282-4.203125-.898437-2.347657-2.402344-6.269531-5.628906-10.257813-3.949219-4.867187-8.511719-8.003906-13.554688-9.335937-2.082031-.550781-3.757812-.648438-6.3125-.648438-.589843 0-1.234374.007813-1.9375.011719-4.433593.03125-8.265624.054688-12.339843 2.253906-1.363281.734375-2.628907 1.636719-3.765625 2.679688-1.199219 1.089844-2.339844 2.441406-3.378906 4.007812-4.425782 6.660156-8.847657 13.320313-13.273438 19.980469l-13.144531 19.792969c-17.402344 10.078125-28.152344 29.675781-28.058594 51.179687.070313 14.820313 5.324219 28.898438 14.796875 39.636719 9.476562 10.746094 22.140625 16.980469 35.664062 17.554688.691407.03125 1.390626.042968 2.082032.042968 28.6875 0 52.082031-25.316406 52.523437-56.65625l2.234375 1.128906c1.9375.976563 3.980469 1.585938 6.058594 1.804688 2.054688.210938 4.109375.324219 6.097656.328125l.46875.003906c1.304688 0 2.640625-.046875 3.964844-.136719 2.335938-.152343 4.582031-.75 6.679688-1.773437l2.828124-1.382813v.121094c0 31.71875 23.566407 57.523438 52.53125 57.523438h.003907c.6875 0 1.386719-.015625 2.078125-.046875 13.460937-.570313 26.085937-6.753907 35.550781-17.414063 9.460937-10.664062 14.753906-24.660156 14.902344-39.414062.21875-21.230469-10.234375-40.804688-27.300781-51.101563" fill="#0d4e9e"/><path d="m198.5625 120.734375s26.011719 14.09375 26.539062 49.191406c0 0 10.769532-41.425781-26.539062-49.191406" fill="#29549d"/><path d="m64.835938 120.734375s26.011718 14.09375 26.535156 49.191406c0 0 10.773437-41.425781-26.535156-49.191406" fill="#29549d"/><g fill="#f48221"><path d="m200.863281 41.929688c-20.261719-22.191407-47.207031-34.410157-75.863281-34.410157-28.660156 0-55.597656 12.21875-75.863281 34.410157-17.722657 19.402343-28.480469 44.394531-30.902344 71.351562l5.359375-5.03125c7.410156-53.996094 50.058594-95.535156 101.40625-95.535156 51.359375 0 94.027344 41.566406 101.414062 95.585937l5.230469 3.730469c-2.636719-26.476562-13.332031-51-30.78125-70.101562m-20.21875 177.347656c-16.039062 11.386718-35.148437 18.007812-55.644531 18.007812-20.898438 0-40.355469-6.878906-56.582031-18.679687l-5.875 1.953125c18.09375 14.242187 39.734375 21.921875 62.457031 21.921875 22.710938 0 44.347656-7.675781 62.429688-21.902344zm0 0"/><path d="m147.789062 196.765625c-7.402343 2.9375-15.378906 4.535156-23.691406 4.535156-7.753906 0-15.214844-1.390625-22.1875-3.957031-1.4375 2.671875-3.980468 6.1875-8.195312 8.628906 9.511718 4.273438 19.792968 6.515625 30.382812 6.515625 10.679688 0 22.238282-2.75 31.816406-7.09375-1.921874-1.960937-5.695312-4.492187-8.125-8.628906m-23.691406-159.445313c-16.328125 0-31.910156 5.320313-45.09375 15.214844 3.257813.230469 8.90625.859375 16.734375 2.566406 0 .007813 0 .007813.003907 0 8.671874-4.238281 18.265624-6.59375 28.355468-6.59375 10.867188 0 21.164063 2.730469 30.339844 7.605469 1.902344-1.128906 6.90625-2.796875 14.964844-3.945312-12.617188-8.703125-30.027344-14.847657-45.304688-14.847657"/></g></svg>

<svg xmlns="http://www.w3.org/2000/svg" xmlns:xlink="http://www.w3.org/1999/xlink" width="250px" height="250px" viewBox="0 0 250 250" version="1.1">
<g id="surface1">
<path style=" stroke:none;fill-rule:nonzero;fill:rgb(5.098039%,30.588236%,61.960787%);fill-opacity:1;" d="M 194.484375 201.714844 L 194.359375 177.839844 C 196.988281 174.816406 198.828125 172.949219 198.828125 172.949219 C 202.375 170.070312 201.191406 165.324219 201.191406 165.324219 L 199.136719 131.414062 C 199.109375 130.988281 198.789062 130.65625 198.398438 130.65625 L 198.234375 130.65625 C 197.835938 130.65625 197.507812 131.007812 197.5 131.449219 L 196.867188 164.320312 C 196.863281 164.636719 196.625 164.894531 196.332031 164.894531 L 196.199219 164.894531 C 195.90625 164.894531 195.667969 164.636719 195.664062 164.320312 L 195.03125 131.449219 C 195.023438 131.007812 194.695312 130.65625 194.296875 130.65625 C 193.894531 130.65625 193.566406 131.007812 193.558594 131.449219 L 192.925781 164.03125 C 192.921875 164.351562 192.683594 164.605469 192.390625 164.605469 L 192.21875 164.605469 C 191.929688 164.605469 191.691406 164.355469 191.683594 164.039062 L 190.707031 131.4375 C 190.691406 131.003906 190.367188 130.65625 189.96875 130.65625 L 189.957031 130.65625 C 189.558594 130.65625 189.230469 131.007812 189.21875 131.445312 L 188.460938 164.320312 C 188.457031 164.640625 188.21875 164.894531 187.925781 164.894531 C 187.632812 164.894531 187.394531 164.636719 187.390625 164.3125 L 187.011719 131.457031 C 187.007812 131.011719 186.679688 130.65625 186.277344 130.65625 L 185.988281 130.65625 C 185.597656 130.65625 185.277344 130.988281 185.25 131.410156 L 183.324219 162.878906 C 181.617188 169.207031 184.378906 172.085938 184.378906 172.085938 C 190.289062 177.40625 189.894531 178.558594 189.894531 178.558594 L 189.394531 201.742188 C 178.953125 201.101562 169.304688 196.136719 162.125 187.667969 C 154.695312 178.90625 150.878906 167.5 151.382812 155.546875 C 152.335938 132.996094 169.210938 114.515625 189.808594 113.480469 C 190.4375 113.449219 191.078125 113.433594 191.703125 113.433594 C 202.820312 113.433594 213.183594 118.296875 220.882812 127.125 C 228.574219 135.945312 232.527344 147.511719 232.015625 159.699219 C 231.082031 181.933594 214.675781 200.199219 194.484375 201.714844 M 130.359375 147.835938 C 130.039062 150.601562 127.972656 152.863281 125.441406 153.21875 C 125.195312 153.253906 124.941406 153.269531 124.695312 153.269531 C 123.050781 153.269531 121.488281 152.496094 120.398438 151.140625 C 119.296875 149.769531 118.808594 148.011719 119.019531 146.179688 C 119.339844 143.414062 121.40625 141.152344 123.933594 140.796875 C 124.1875 140.757812 124.4375 140.742188 124.691406 140.742188 C 126.328125 140.742188 127.894531 141.519531 128.980469 142.871094 C 130.082031 144.238281 130.574219 146 130.359375 147.835938 M 98.621094 158.742188 C 97.761719 179.222656 83.765625 196.34375 65.785156 200.09375 C 65.769531 200.097656 65.75 200.101562 65.738281 200.105469 C 64.042969 200.507812 62.371094 200.738281 60.761719 200.847656 L 60.5 178.847656 C 61.8125 175.539062 66.28125 172.660156 66.28125 172.660156 C 73.636719 167.195312 72.191406 158.421875 72.191406 158.421875 C 71.667969 137.417969 61.8125 132.671875 61.8125 132.671875 C 55.507812 130.226562 52.617188 134.542969 52.617188 134.542969 C 43.554688 143.605469 44.867188 159.28125 44.867188 159.28125 C 44.082031 168.921875 51.042969 173.234375 51.042969 173.234375 L 56.953125 178.125 L 56.316406 200.855469 C 51.074219 200.535156 47.265625 199.183594 47.003906 199.089844 C 47 199.089844 46.996094 199.089844 46.992188 199.085938 L 46.988281 199.085938 C 29.566406 193.476562 17.117188 175.246094 17.984375 154.59375 C 18.929688 132.035156 35.808594 113.558594 56.40625 112.523438 C 57.039062 112.488281 57.675781 112.472656 58.304688 112.472656 C 69.414062 112.472656 79.777344 117.335938 87.476562 126.167969 C 95.171875 134.984375 99.128906 146.558594 98.621094 158.742188 M 216.929688 107.175781 C 208.605469 94.347656 200.289062 81.53125 191.96875 68.703125 C 189.699219 65.203125 186.609375 62.460938 183.027344 60.761719 C 178.792969 58.765625 174.421875 57.761719 170.027344 57.761719 C 169.085938 57.761719 168.132812 57.804688 167.195312 57.902344 C 164.917969 58.128906 158.867188 58.730469 153.234375 63.242188 C 146.613281 68.535156 144.011719 76.292969 142.996094 81.859375 C 142.90625 82.347656 142.53125 82.570312 142.214844 82.570312 C 142.039062 82.570312 141.878906 82.5 141.738281 82.375 L 139.878906 80.679688 C 137.285156 78.324219 134.132812 76.871094 130.761719 76.488281 C 129.097656 76.292969 127.382812 76.179688 125.664062 76.148438 C 125.390625 76.144531 125.117188 76.144531 124.847656 76.144531 C 123.609375 76.144531 122.347656 76.1875 121.101562 76.277344 C 117.730469 76.515625 114.535156 77.839844 111.851562 80.105469 L 109.734375 81.898438 C 109.589844 82.019531 109.429688 82.078125 109.257812 82.078125 C 108.992188 82.078125 108.640625 81.921875 108.523438 81.496094 C 108.148438 80.097656 107.691406 78.6875 107.160156 77.292969 C 106.261719 74.945312 104.757812 71.023438 101.53125 67.035156 C 97.582031 62.167969 93.019531 59.03125 87.976562 57.699219 C 85.894531 57.148438 84.21875 57.050781 81.664062 57.050781 C 81.074219 57.050781 80.429688 57.058594 79.726562 57.0625 C 75.292969 57.09375 71.460938 57.117188 67.386719 59.316406 C 66.023438 60.050781 64.757812 60.953125 63.621094 61.996094 C 62.421875 63.085938 61.28125 64.4375 60.242188 66.003906 C 55.816406 72.664062 51.394531 79.324219 46.96875 85.984375 L 33.824219 105.777344 C 16.421875 115.855469 5.671875 135.453125 5.765625 156.957031 C 5.835938 171.777344 11.089844 185.855469 20.5625 196.59375 C 30.039062 207.339844 42.703125 213.574219 56.226562 214.148438 C 56.917969 214.179688 57.617188 214.191406 58.308594 214.191406 C 86.996094 214.191406 110.390625 188.875 110.832031 157.535156 L 113.066406 158.664062 C 115.003906 159.640625 117.046875 160.25 119.125 160.46875 C 121.179688 160.679688 123.234375 160.792969 125.222656 160.796875 L 125.691406 160.800781 C 126.996094 160.800781 128.332031 160.753906 129.65625 160.664062 C 131.992188 160.511719 134.238281 159.914062 136.335938 158.890625 L 139.164062 157.507812 L 139.164062 157.628906 C 139.164062 189.347656 162.730469 215.152344 191.695312 215.152344 L 191.699219 215.152344 C 192.386719 215.152344 193.085938 215.136719 193.777344 215.105469 C 207.238281 214.535156 219.863281 208.351562 229.328125 197.691406 C 238.789062 187.027344 244.082031 173.03125 244.230469 158.277344 C 244.449219 137.046875 233.996094 117.472656 216.929688 107.175781 "/>
<path style=" stroke:none;fill-rule:nonzero;fill:rgb(16.078432%,32.941177%,61.56863%);fill-opacity:1;" d="M 198.5625 120.734375 C 198.5625 120.734375 224.574219 134.828125 225.101562 169.925781 C 225.101562 169.925781 235.871094 128.5 198.5625 120.734375 "/>
<path style=" stroke:none;fill-rule:nonzero;fill:rgb(16.078432%,32.941177%,61.56863%);fill-opacity:1;" d="M 64.835938 120.734375 C 64.835938 120.734375 90.847656 134.828125 91.371094 169.925781 C 91.371094 169.925781 102.144531 128.5 64.835938 120.734375 "/>
<path style=" stroke:none;fill-rule:nonzero;fill:rgb(95.686275%,50.980395%,12.941177%);fill-opacity:1;" d="M 200.863281 41.929688 C 180.601562 19.738281 153.65625 7.519531 125 7.519531 C 96.339844 7.519531 69.402344 19.738281 49.136719 41.929688 C 31.414062 61.332031 20.65625 86.324219 18.234375 113.28125 L 23.59375 108.25 C 31.003906 54.253906 73.652344 12.714844 125 12.714844 C 176.359375 12.714844 219.027344 54.28125 226.414062 108.300781 L 231.644531 112.03125 C 229.007812 85.554688 218.3125 61.03125 200.863281 41.929688 M 180.644531 219.277344 C 164.605469 230.664062 145.496094 237.285156 125 237.285156 C 104.101562 237.285156 84.644531 230.40625 68.417969 218.605469 L 62.542969 220.558594 C 80.636719 234.800781 102.277344 242.480469 125 242.480469 C 147.710938 242.480469 169.347656 234.804688 187.429688 220.578125 Z M 180.644531 219.277344 "/>
<path style=" stroke:none;fill-rule:nonzero;fill:rgb(95.686275%,50.980395%,12.941177%);fill-opacity:1;" d="M 147.789062 196.765625 C 140.386719 199.703125 132.410156 201.300781 124.097656 201.300781 C 116.34375 201.300781 108.882812 199.910156 101.910156 197.34375 C 100.472656 200.015625 97.929688 203.53125 93.714844 205.972656 C 103.226562 210.246094 113.507812 212.488281 124.097656 212.488281 C 134.777344 212.488281 146.335938 209.738281 155.914062 205.394531 C 153.992188 203.433594 150.21875 200.902344 147.789062 196.765625 M 124.097656 37.320312 C 107.769531 37.320312 92.1875 42.640625 79.003906 52.535156 C 82.261719 52.765625 87.910156 53.394531 95.738281 55.101562 C 95.738281 55.109375 95.738281 55.109375 95.742188 55.101562 C 104.414062 50.863281 114.007812 48.507812 124.097656 48.507812 C 134.964844 48.507812 145.261719 51.238281 154.4375 56.113281 C 156.339844 54.984375 161.34375 53.316406 169.402344 52.167969 C 156.785156 43.464844 139.375 37.320312 124.097656 37.320312 "/>
</g>
</svg>
